X:45
T: FUER DIE ZEIT DASS DU MI GELIEBT HAST
N: F0130A
O: Europa, Mitteleuropa, Deutschland
N: Strophen - Variante zu F0130
R: Liebes - Lied, Spott
M: 3/8
L: 1/16
K: F
CC | F2FGAB | c2c2c2 | d2d2d2 | c4
cc | B2B2B2 | A2A2A2 | G2G2G2 | F4
c2 | G2c3B | A2f3c | c2A2G2 | F4

@@@ Tune index: 5476
